build/img/two-arrows_hover.svg

<svg width="24" height="24" viewBox="0 0 24 24" fill="none" xmlns="http://www.w3.org/2000/svg">
<path d="M6.85713 16.7143L10.2857 20.1429M3.42856 6.85714H16.2857H3.42856ZM16.2857 6.85714L12.8571 3.42857L16.2857 6.85714ZM16.2857 6.85714L12.8571 10.2857L16.2857 6.85714ZM19.7143 16.7143H6.85713H19.7143ZM6.85713 16.7143L10.2857 13.2857L6.85713 16.7143Z" stroke="#2858ff" stroke-width="1.5" stroke-linecap="round" stroke-linejoin="round"/>
</svg>

<svg width="24" height="24" viewBox="0 0 24 24" fill="none" xmlns="http://www.w3.org/2000/svg"><path d="M6.857 16.714l3.429 3.429M3.429 6.857h12.857H3.429zm12.857 0L12.857 3.43l3.429 3.428zm0 0l-3.429 3.429 3.429-3.429zm3.428 9.857H6.857h12.857zm-12.857 0l3.429-3.428-3.429 3.428z" stroke="#2858ff" stroke-width="1.5" stroke-linecap="round" stroke-linejoin="round"/></svg>
